!!!COM: Igor (Fyodorovich) Stravinsky
!!!OTL: [T376_Str-21/36/[66]1-12]
**kern	**dynam	**kern	**dynam	**kern	**dynam
*grp:A	*grp:A	*grp:A	*grp:A	*grp:B	*grp:B
*part3	*	*part2	*	*part1	*part1
*staff3	*	*staff2	*	*staff1	*
*I"Bassoon	*	*I"Clarinet in A	*	*I"Flute	*
*I'Bsn.	*	*I'Cl. in A	*	*I'Fl.	*
*clefF4	*	*clefG2	*	*clefG2	*
*	*	*ITrd2c3	*	*	*
*k[]	*	*k[f#c#g#]	*	*k[]	*
*M2/4	*	*M2/4	*	*M2/4	*
!!LO:REH:t=66
=92	=92	=92	=92	=92	=92
!	!	!	!	!LO:TX:t=[[quarter]=116]	!
!LO:TX:b:i:t=stacc. e leggiero	!LO:DY:ed=brack	!LO:TX:b:i:t=leggiero	!LO:DY:ed=brack	!LO:TX:a:i:t=Solo espressivo	!LO:DY:ed=brack
8e-X'L	mp	(16gX~LL	mp	4.g	mp
.	.	16e)	.	.	.
8d-X'	.	16fX'	.	.	.
.	.	16g'JJ	.	.	.
8A'	.	[4e	.	.	.
8e-'J	.	.	.	[8a-X^	.
=93	=93	=93	=93	=93	=93
8d-X'L	.	8eL]	.	4a-]	.
8A-X'	.	(8fX'~	.	.	.
8e-X'	.	16gXk)	.	(4b-XTT	.
.	.	16r	.	.	.
8d-'J	.	8e'J	.	.	.
=94	=94	=94	=94	=94	=94
8GL	.	(16fX~LL	.	4.cc)	.
.	.	16gX)	.	.	.
8e-X	.	16e'	.	.	.
.	.	16f'JJ	.	.	.
8d-X	.	[4g	.	.	.
8A-XJ	.	.	.	[8cc^	.
=95	=95	=95	=95	=95	=95
8e-XL	.	8gnXL]	.	4cc]	.
8d-X	.	(8e'~	.	.	.
8An	.	16fXk)	.	(4dd-XTT	.
.	.	16r	.	.	.
8e-J	.	8g'J	.	.	.
!!linebreak:original
=96	=96	=96	=96	=96	=96
8d-XL	.	(16e~LL	.	4.ee-X)	.
.	.	16fX)	.	.	.
8B-X	.	16gX'	.	.	.
.	.	16e'JJ	.	.	.
8e-X	.	[4f	.	.	.
8d-J	.	.	.	([8eee-X^	.
=97	=97	=97	=97	=97	=97
8AL	.	8fnXL]	.	4eee-X]	.
8e-X	.	(8gX'~	.	.	.
8d-X	.	16ek)	.	4ccc)	.
.	.	16r	.	.	.
8A-XJ	.	8f'J	.	.	.
=98	=98	=98	=98	=98	=98
8e-XL	.	(16gX~LL	.	4.dd-X	.
.	.	16e)	.	.	.
8d-X	.	16fX'	.	.	.
.	.	16g'JJ	.	.	.
8G	.	[4e	.	.	.
8e-J	.	.	.	([8ddd-X^	.
=99	=99	=99	=99	=99	=99
8d-XL	.	8eL]	.	4ddd-X]	.
8A-X	.	(8fX'~	.	.	.
8e-X	.	16gXk)	.	4bb-X)	.
.	.	16r	.	.	.
8d-J	.	8e'J	.	.	.
!!linebreak:original
=100	=100	=100	=100	=100	=100
8AnZL	.	(16fX~LL	.	8.ccL	.
.	.	16gX)	.	.	.
8e-X	.	16e'	.	.	.
.	.	16f'JJ	.	16dd-X'Jk	.
8d-X	.	[4g	.	16ee-X'LL	.
.	.	.	.	16ff'	.
8B-XJ	.	.	.	16gg'	.
.	.	.	.	16aa-X'JJ	.
=101	=101	=101	=101	=101	=101
8e-XL	.	8gnXL]	.	8bb-X'L	.
8d-X	.	(8e'~	.	(8ccJ	<
8A	.	16fXk)	.	8dd-X'L)	[
.	.	16r	.	.	.
8e-J	.	8g'J	.	(16cccL	.
.	.	.	.	16bb-JJ)	.
=102	=102	=102	=102	=102	=102
8d-XL	.	(16e~LL	.	8aa-XL	.
.	.	16fX)	.	.	.
8A-X	.	16gX'	.	(8b-XJ	<
.	.	16e'JJ	.	.	.
8e-X	.	[4f	.	8cc'L)	[
8d-J	.	.	.	(16bb-XL	.
.	.	.	.	16aa-JJ)	.
=103	=103	=103	=103	=103	=103
8GL	.	8fnXL]	.	8ggL	.
8e-X	.	(8gX'~	.	(8a-XJ	<
8d-X	.	16ek)	.	8aa-X'L)	[
.	.	16r	.	.	.
8A-XJ	.	8f'J	.	8ff'J	.
=	=	=	=	=	=
*-	*-	*-	*-	*-	*-
!!!system-decoration: [(s1,s2,s3)]
!!!RDF**kern: i = editorial accidental
!!!RDF**kern: j = editorial accidental, bracket
!!!RDF**kern: Z = editorial accidental, parentheses
!!!EED: Rafael Laurindo
!!!EEV: 2021/07/22 
!!!EED2: Daniel Wright
!!!EEV2: 2022/02/04
